Obsidian-SemiLight/actions/22s/mail-message-new-list.svg

<svg viewBox="0 0 22 22" xmlns="http://www.w3.org/2000/svg"><path d="m1 3v1 8 6 .414062.585938h1 6 6v-1h-6-6v-.585938l.4628906-.46289 6.2675782-6.267578 1.4531252 1.451172.814453.814453h.001953l.816406-.814453 1.453125-1.451172 1.316407 1.316406h1.414062l-2.023438-2.0234375 5.751954-5.7539063.222656-.2226562h.048828v.2226562 7.7773438h1v-9h-.048828-.951172-.462891-17.0742184-.4628906zm1 1h.0488281l.2226563.2226562 5.7519531 5.7539063-6.0234375 6.0234375v-4-7.7773438zm1.4628906 0h15.0742184l-7.537109 7.537109zm11.5371094 10v1h6v-1zm0 2v1h6v-1zm0 2v1h6v-1z" fill="#4d4d4d"/></svg>

<svg xmlns="http://www.w3.org/2000/svg" viewBox="0 0 22 22">
  <defs id="defs3051">
    <style type="text/css" id="current-color-scheme">
      .ColorScheme-Text {
        color:#4d4d4d;
      }
      </style>
  </defs>
 <path 
    style="fill:currentColor;fill-opacity:1;stroke:none" 
    d="M 1 3 L 1 4 L 1 12 L 1 18 L 1 18.414062 L 1 19 L 2 19 L 8 19 L 14 19 L 14 18 L 8 18 L 2 18 L 2 17.414062 L 2.4628906 16.951172 L 8.7304688 10.683594 L 10.183594 12.134766 L 10.998047 12.949219 L 11 12.949219 L 11.816406 12.134766 L 13.269531 10.683594 L 14.585938 12 L 16 12 L 13.976562 9.9765625 L 19.728516 4.2226562 L 19.951172 4 L 20 4 L 20 4.2226562 L 20 12 L 21 12 L 21 3 L 20.951172 3 L 20 3 L 19.537109 3 L 2.4628906 3 L 2 3 L 1 3 z M 2 4 L 2.0488281 4 L 2.2714844 4.2226562 L 8.0234375 9.9765625 L 2 16 L 2 12 L 2 4.2226562 L 2 4 z M 3.4628906 4 L 18.537109 4 L 11 11.537109 L 3.4628906 4 z M 15 14 L 15 15 L 21 15 L 21 14 L 15 14 z M 15 16 L 15 17 L 21 17 L 21 16 L 15 16 z M 15 18 L 15 19 L 21 19 L 21 18 L 15 18 z "
    class="ColorScheme-Text"
    />  
</svg>
